public/about/vscode.svg

<svg width="81" height="81" viewBox="0 0 81 81" fill="none" xmlns="http://www.w3.org/2000/svg">
<path d="M73.0253 13.0751L58.6103 6.13506C57.7963 5.74256 56.8803 5.61303 55.9893 5.76444C55.0983 5.91584 54.2765 6.34068 53.6378 6.98006L6.45032 50.0001C5.87779 50.5196 5.53508 51.2452 5.49758 52.0174C5.46007 52.7896 5.73084 53.545 6.25032 54.1176C6.31282 54.1851 6.37532 54.2501 6.44282 54.3101L10.2953 57.8101C10.7987 58.2682 11.4467 58.5356 12.1267 58.5657C12.8067 58.5959 13.4758 58.3869 14.0178 57.9751L70.8553 14.8751C71.2846 14.5493 71.7964 14.3498 72.3329 14.2991C72.8694 14.2484 73.4094 14.3484 73.8922 14.588C74.3749 14.8275 74.7812 15.1971 75.0653 15.655C75.3495 16.113 75.5001 16.6411 75.5003 17.1801V17.0126C75.5003 16.1898 75.268 15.3838 74.8301 14.6872C74.3923 13.9907 73.7667 13.4318 73.0253 13.0751Z" fill="#FF644D"/>
<path d="M73.0253 67.9249L58.6103 74.8674C57.796 75.2588 56.8803 75.3877 55.9896 75.2363C55.0989 75.085 54.2771 74.6608 53.6378 74.0224L6.45032 30.9999C5.87779 30.4804 5.53508 29.7547 5.49758 28.9825C5.46007 28.2104 5.73084 27.4549 6.25032 26.8824C6.31282 26.8149 6.37532 26.7499 6.44282 26.6899L10.2953 23.1899C10.7992 22.7298 11.4487 22.4612 12.1304 22.4311C12.8121 22.4009 13.4827 22.6111 14.0253 23.0249L70.8553 66.1249C71.2846 66.4506 71.7964 66.6501 72.3329 66.7008C72.8694 66.7516 73.4094 66.6515 73.8922 66.4119C74.3749 66.1724 74.7812 65.8028 75.0653 65.3449C75.3495 64.887 75.5001 64.3588 75.5003 63.8199V63.9999C75.4976 64.8204 75.2641 65.6237 74.8264 66.3178C74.3887 67.0119 73.7646 67.5688 73.0253 67.9249Z" fill="#FF644D"/>
<path d="M58.6095 74.8675C57.7952 75.2589 56.8794 75.3878 55.9887 75.2364C55.098 75.0851 54.2763 74.6609 53.637 74.0225C53.996 74.3768 54.4516 74.6173 54.9467 74.7138C55.4418 74.8103 55.9543 74.7586 56.4202 74.565C56.886 74.3715 57.2843 74.0448 57.5652 73.6259C57.8462 73.2069 57.9972 72.7144 57.9995 72.21V8.78997C57.9999 8.28319 57.8499 7.78769 57.5684 7.36624C57.287 6.94478 56.8868 6.61634 56.4186 6.4225C55.9504 6.22867 55.4351 6.17818 54.9381 6.27742C54.4412 6.37666 53.9848 6.62117 53.627 6.97997C54.2658 6.34083 55.0874 5.91596 55.9782 5.76413C56.869 5.6123 57.785 5.74102 58.5995 6.13247L73.012 13.0625C73.7557 13.4175 74.3838 13.9755 74.824 14.6722C75.2641 15.3689 75.4983 16.1759 75.4995 17V64C75.4996 64.8234 75.2672 65.6301 74.8289 66.3272C74.3905 67.0243 73.7642 67.5834 73.022 67.94L58.6095 74.8675Z" fill="#FE705A"/>
</svg>

<?xml version="1.0" encoding="utf-8"?>
<!-- Generator: Adobe Illustrator 25.0.0, SVG Export Plug-In . SVG Version: 6.00 Build 0)  -->
<svg version="1.1" id="Layer_1" xmlns="http://www.w3.org/2000/svg" xmlns:xlink="http://www.w3.org/1999/xlink" x="0px" y="0px"
	 viewBox="0 0 81 81" style="enable-background:new 0 0 81 81;" xml:space="preserve">
<style type="text/css">
	.st0{fill:#DC2626;}
	.st1{fill:#E02F2F;}
</style>
<path class="st0" d="M73,13.1l-14.4-7c-0.8-0.4-1.7-0.5-2.6-0.4c-0.9,0.2-1.7,0.6-2.4,1.2L6.5,50c-0.6,0.5-0.9,1.2-1,2
	c0,0.8,0.2,1.5,0.8,2.1c0.1,0.1,0.1,0.1,0.2,0.2l3.9,3.5c0.5,0.5,1.2,0.7,1.8,0.8c0.7,0,1.3-0.2,1.9-0.6l56.8-43.1
	c0.4-0.3,0.9-0.5,1.5-0.6s1.1,0,1.6,0.3c0.5,0.2,0.9,0.6,1.2,1.1c0.3,0.5,0.4,1,0.4,1.5V17c0-0.8-0.2-1.6-0.7-2.3S73.8,13.4,73,13.1
	z"/>
<path class="st0" d="M73,67.9l-14.4,6.9c-0.8,0.4-1.7,0.5-2.6,0.4c-0.9-0.2-1.7-0.6-2.4-1.2L6.5,31c-0.6-0.5-0.9-1.2-1-2
	c0-0.8,0.2-1.5,0.8-2.1c0.1-0.1,0.1-0.1,0.2-0.2l3.9-3.5c0.5-0.5,1.2-0.7,1.8-0.8c0.7,0,1.4,0.2,1.9,0.6l56.8,43.1
	c0.4,0.3,0.9,0.5,1.5,0.6c0.5,0.1,1.1,0,1.6-0.3c0.5-0.2,0.9-0.6,1.2-1.1c0.3-0.5,0.4-1,0.4-1.5V64c0,0.8-0.2,1.6-0.7,2.3
	S73.8,67.6,73,67.9z"/>
<path class="st1" d="M58.6,74.9c-0.8,0.4-1.7,0.5-2.6,0.4c-0.9-0.2-1.7-0.6-2.4-1.2c0.4,0.4,0.8,0.6,1.3,0.7s1,0,1.5-0.1
	c0.5-0.2,0.9-0.5,1.1-0.9c0.3-0.4,0.4-0.9,0.4-1.4V8.8c0-0.5-0.1-1-0.4-1.4c-0.3-0.4-0.7-0.7-1.1-0.9c-0.5-0.2-1-0.2-1.5-0.1
	s-1,0.3-1.3,0.7C54.2,6.5,55.1,6,56,5.9c0.9-0.2,1.8,0,2.6,0.4L73,13.1c0.7,0.4,1.4,0.9,1.8,1.6c0.4,0.7,0.7,1.5,0.7,2.3v47
	c0,0.8-0.2,1.6-0.7,2.3c-0.4,0.7-1.1,1.3-1.8,1.6L58.6,74.9z"/>
</svg>
